X: 4
T: Hanter-dro 3    [Dm]
G:Kazimodal
R:Hanter-zañs
C:Traditionnel, arrangement Ronan Keryell http://kazimodal.trad.org
Q:C2=100
M:3/4
S:Tonioù Breizh-Izel 1910 (Plañwour/An Oriant)
K:Dm
|: "Dm"DF/2E/2 D"F"F {EF}"C"E2 \
|  "Gm"(G/2F/2)(G/2A/2) {FG}"Am"FG/2E/2 "Bb"FD \
|  "Dm"DF/2E/2 D"F"F {EF}"C"E2 \
|  "Gm"(G/2F/2)A/2G/2 {FG}"Bb"F"C"(E/2F/2) "Dm"D2 :|
|: "F"A(A/2B/2) "Gm"GA {FG}"Bb"FD \
|  "Gm"G(G/2A/2) "C"EG "Bb"(F/2E/2)(F/2G/2) \
|  "F"A(A/2B/2) "Gm"GA {FG}"Bb"FD \
| "C"G(G/2A/2) {FG}"Bb"F"C"E "Dm"D2 :|

%%sep 1 1 500

